img/svg/footer-heart.svg

<svg width="16" height="14" viewBox="0 0 16 14" xmlns="http://www.w3.org/2000/svg">
<path fill-rule="evenodd" clip-rule="evenodd" d="M7.99925 12.2715C4.93321 10.5252 3.22318 8.78955 2.39626 7.28361C1.54992 5.74228 1.62377 4.4441 2.0934 3.52273C3.05872 1.62892 5.80378 1.02333 7.4763 3.13865L7.99921 3.80001L8.52217 3.13868C10.195 1.02327 12.9402 1.62896 13.9055 3.52273C14.3751 4.44408 14.4489 5.74226 13.6025 7.28359C12.7756 8.78954 11.0654 10.5252 7.99925 12.2715ZM7.99928 1.73726C5.64647 -0.498482 2.17555 0.425546 0.905488 2.91723C0.20846 4.2847 0.198939 6.05212 1.22753 7.92536C2.247 9.78198 4.2796 11.7417 7.67675 13.6194L7.99924 13.7976L8.32173 13.6194C11.719 11.7417 13.7517 9.78199 14.7712 7.92537C15.7999 6.05214 15.7904 4.28472 15.0934 2.91723C13.8233 0.425498 10.3523 -0.498448 7.99928 1.73726Z" />
</svg>

<svg width="16" height="14" xmlns="http://www.w3.org/2000/svg"><path fill-rule="evenodd" clip-rule="evenodd" d="M8 12.271C4.932 10.525 3.222 8.79 2.395 7.284c-.846-1.542-.772-2.84-.303-3.761.966-1.894 3.71-2.5 5.383-.384L8 3.8l.523-.661c1.673-2.116 4.418-1.51 5.383.384.47.921.544 2.22-.303 3.76-.826 1.507-2.537 3.242-5.603 4.988zM8 1.737C5.645-.498 2.175.426.904 2.917.208 4.285.2 6.052 1.228 7.925c1.019 1.857 3.052 3.817 6.449 5.694l.322.179.323-.179c3.397-1.877 5.43-3.837 6.45-5.694 1.028-1.873 1.018-3.64.321-5.008C13.823.425 10.353-.498 8 1.737z"/></svg>
